website/static/img/logo.svg

<svg class="logo-svg" width="92" height="56" viewBox="0 0 92 56" fill="none" xmlns="http://www.w3.org/2000/svg">
<path d="M49.1672 33.937L38.2236 23.8881" stroke="white" stroke-width="4"/>
<path d="M27.9308 23.8881L12.1816 38.6374" stroke="white" stroke-width="4"/>
<circle cx="32.5" cy="20.5004" r="6.5" stroke="white" stroke-width="4"/>
<circle cx="54.5" cy="36.5004" r="6.5" stroke="white" stroke-width="4"/>
<path class="logo-svg-stem-path" fill-rule="evenodd" clip-rule="evenodd" d="M86.493 1.91812C84.8392 6.03329 82.1457 11.2735 78.5191 16.2552C73.4701 23.1907 66.8202 29.3408 58.9463 31.4941L60.0015 35.3524C69.1374 32.8539 76.4658 25.872 81.7529 18.6094C86.4387 12.1729 89.6842 5.29286 91.2646 0.532227L86.493 1.91812Z" />
<path d="M44.4691 53.3141C67.8577 53.3141 86.3465 30.1549 84.4261 9.3265C74.0747 15.3001 65.8363 15.6428 56.512 9.88183C56.512 12.5044 56.512 15.4099 57.3553 18.3799C54.5811 16.9762 49.2286 12.1885 47.2242 6.53225C16.8313 -0.172399 3.45996 25.0576 3.45996 25.0576C3.45996 25.0576 6.51875 39.8404 25.9795 49.9563C25.9795 49.9563 35.1367 48.6822 40.5719 44.9398C39.809 48.2054 38.1662 51.0133 36.2942 52.7877C38.7077 53.106 41.736 53.4334 44.4691 53.3141Z" stroke="white" stroke-width="4"/>
</svg>

<svg xmlns="http://www.w3.org/2000/svg" width="92" height="56" viewBox="0 0 92 56" fill="none"><path d="M49.17 33.94L38.22 23.89M27.93 23.89L12.18 38.64" stroke="#000" stroke-width="4"/><circle cx="32.5" cy="20.5" r="6.5" stroke="#000" stroke-width="4"/><circle cx="54.5" cy="36.5" r="6.5" stroke="#000" stroke-width="4"/><path d="M86.5 1.92a68.68 68.68 0 0 1-7.98 14.34c-5.05 6.93-11.7 13.08-19.57 15.23L60 35.35c9.14-2.5 16.47-9.48 21.75-16.74A70.24 70.24 0 0 0 91.26.53L86.5 1.92z" fill="#000"/><path d="M44.47 53.31c23.39 0 41.88-23.16 39.96-43.98-10.36 5.97-18.6 6.31-27.92.55 0 2.62 0 5.53.85 8.5-2.78-1.4-8.13-6.2-10.14-11.85C16.83-.17 3.46 25.06 3.46 25.06s3.06 14.78 22.52 24.9c0 0 9.16-1.28 14.6-5.02a16.03 16.03 0 0 1-4.29 7.85c2.42.32 5.45.64 8.18.52z" stroke="#000" stroke-width="4"/></svg>
